X: 1
T: Lady Charlotte Murray
C: Niel Gow
B: RSCDS 42-3
R: jig
Z: 2005 John Chambers <jc:trillian.mit.edu>
M: 6/8
L: 1/8
K: D
A/G/ \
| "D"F2D DFA | dAF AFD | "C"E{=F}GE =CEG | =cGE =CEG \
| "D"F2D DFD | dAF AFD | "C"G=cG "A7"EFG | "D"AFD D2 :|
"A7"a/g/ \
| "D"f2d dfd | afd "G7"de=f | "C"e2=c cec | ge=c "A7"efg \
| "D"f2d "(Bm)"dfd | "D"afd "A7"efg | "D"fdf "A7"ece | "D"dAF D2 |]
"A7"a/g/ \
| "D"f2d dfd | afd "G7"de=f | "C"e2=c cec | ge=c "A7"efg \
| "D"afa "A7"geg | "Bm"fdf "A7"edc | "D"Adc "A7"cBc | "D"dAF D2 |]
%%center Book42/LadyCharlotteMurray1_D-JC.abc

%%sep 1 1 500
%%sep 1 1 500

